Newaita-dark/mimetypes/24/application-x-designer.svg

<?xml version="1.0" encoding="UTF-8"?>
<svg xmlns="http://www.w3.org/2000/svg" xmlns:xlink="http://www.w3.org/1999/xlink" width="24px" height="24px" viewBox="0 0 24 24" version="1.1">
<defs>
<linearGradient id="linear0" gradientUnits="userSpaceOnUse" x1="254" y1="233.5" x2="254" y2="254.666672" gradientTransform="matrix(0.0468795,0,0,0.0468795,0.49614,10.079087)">
<stop offset="0" style="stop-color:rgb(0%,0%,0%);stop-opacity:0.27451;"/>
<stop offset="1" style="stop-color:rgb(0%,0%,0%);stop-opacity:0;"/>
</linearGradient>
<radialGradient id="radial0" gradientUnits="userSpaceOnUse" cx="450.908936" cy="189.579361" fx="450.908936" fy="189.579361" r="21.166656" gradientTransform="matrix(0.000000130628,-0.0585994,-0.105479,-0.0000000761539,37.113427,47.696498)">
<stop offset="0" style="stop-color:rgb(0%,0%,0%);stop-opacity:0.313726;"/>
<stop offset="0.222222" style="stop-color:rgb(0%,0%,0%);stop-opacity:0.27451;"/>
<stop offset="1" style="stop-color:rgb(0%,0%,0%);stop-opacity:0;"/>
</radialGradient>
<radialGradient id="radial1" gradientUnits="userSpaceOnUse" cx="450.908936" cy="189.579361" fx="450.908936" fy="189.579361" r="21.166656" gradientTransform="matrix(-0.000000130628,0.0585994,0.105479,0.0000000761539,-13.794787,-5.645611)">
<stop offset="0" style="stop-color:rgb(0%,0%,0%);stop-opacity:0.313726;"/>
<stop offset="0.222222" style="stop-color:rgb(0%,0%,0%);stop-opacity:0.27451;"/>
<stop offset="1" style="stop-color:rgb(0%,0%,0%);stop-opacity:0;"/>
</radialGradient>
<radialGradient id="radial2" gradientUnits="userSpaceOnUse" cx="450.908936" cy="189.579361" fx="450.908936" fy="189.579361" r="21.166656" gradientTransform="matrix(-0.000000130628,-0.0585994,0.105479,-0.0000000761539,-13.794787,47.696498)">
<stop offset="0" style="stop-color:rgb(0%,0%,0%);stop-opacity:0.313726;"/>
<stop offset="0.222222" style="stop-color:rgb(0%,0%,0%);stop-opacity:0.27451;"/>
<stop offset="1" style="stop-color:rgb(0%,0%,0%);stop-opacity:0;"/>
</radialGradient>
<radialGradient id="radial3" gradientUnits="userSpaceOnUse" cx="450.908936" cy="189.579361" fx="450.908936" fy="189.579361" r="21.166656" gradientTransform="matrix(0.000000130628,0.0585994,-0.105479,0.0000000761539,37.113425,-5.645611)">
<stop offset="0" style="stop-color:rgb(0%,0%,0%);stop-opacity:0.313726;"/>
<stop offset="0.222222" style="stop-color:rgb(0%,0%,0%);stop-opacity:0.27451;"/>
<stop offset="1" style="stop-color:rgb(0%,0%,0%);stop-opacity:0;"/>
</radialGradient>
<linearGradient id="linear1" gradientUnits="userSpaceOnUse" x1="940" y1="1695.118164" x2="940" y2="175.118118" gradientTransform="matrix(0.0124035,0,0,0.0124035,0,0.00000000000000141)">
<stop offset="0" style="stop-color:rgb(50.196081%,87.058824%,91.764706%);stop-opacity:1;"/>
<stop offset="1" style="stop-color:rgb(69.803923%,92.156863%,94.901961%);stop-opacity:1;"/>
</linearGradient>
<linearGradient id="linear2" gradientUnits="userSpaceOnUse" x1="249.189423" y1="233.5" x2="249.189423" y2="254.666687" gradientTransform="matrix(0.0224206,0,0,0.082039,11.281817,-12.270683)">
<stop offset="0" style="stop-color:rgb(0%,0%,0%);stop-opacity:0.27451;"/>
<stop offset="1" style="stop-color:rgb(0%,0%,0%);stop-opacity:0;"/>
</linearGradient>
<linearGradient id="linear3" gradientUnits="userSpaceOnUse" x1="338.666656" y1="233.5" x2="338.666656" y2="-168.666672" gradientTransform="matrix(0.0468795,0,0,0.0468795,0,10.079087)">
<stop offset="0" style="stop-color:rgb(14.901961%,77.64706%,85.490197%);stop-opacity:1;"/>
<stop offset="1" style="stop-color:rgb(30.19608%,81.568629%,88.235295%);stop-opacity:1;"/>
</linearGradient>
<linearGradient id="linear4" gradientUnits="userSpaceOnUse" x1="18401.78125" y1="28098.308594" x2="18401.78125" y2="6385.369141" gradientTransform="matrix(0.0700043,0,0,0.0700043,-328.20459,-271.885406)">
<stop offset="0" style="stop-color:rgb(14.901961%,77.64706%,85.490197%);stop-opacity:1;"/>
<stop offset="1" style="stop-color:rgb(30.19608%,81.568629%,88.235295%);stop-opacity:1;"/>
</linearGradient>
</defs>
<g id="surface1">
<path style=" stroke:none;fill-rule:nonzero;fill:url(#linear0);" d="M 5.953125 21.027344 L 17.363281 21.027344 L 17.363281 22.019531 L 5.953125 22.019531 Z M 5.953125 21.027344 "/>
<path style=" stroke:none;fill-rule:nonzero;fill:url(#radial0);" d="M 17.363281 21.027344 L 19.347656 21.027344 L 19.347656 20.03125 L 17.363281 20.03125 Z M 17.363281 21.027344 "/>
<path style=" stroke:none;fill-rule:nonzero;fill:url(#radial1);" d="M 5.953125 21.027344 L 3.96875 21.027344 L 3.96875 22.019531 L 5.953125 22.019531 Z M 5.953125 21.027344 "/>
<path style=" stroke:none;fill-rule:nonzero;fill:url(#radial2);" d="M 5.953125 21.027344 L 3.96875 21.027344 L 3.96875 20.03125 L 5.953125 20.03125 Z M 5.953125 21.027344 "/>
<path style=" stroke:none;fill-rule:nonzero;fill:url(#radial3);" d="M 17.363281 21.027344 L 19.347656 21.027344 L 19.347656 22.019531 L 17.363281 22.019531 Z M 17.363281 21.027344 "/>
<path style=" stroke:none;fill-rule:nonzero;fill:url(#linear1);" d="M 13.90625 2.171875 L 4.960938 2.171875 C 4.410156 2.171875 3.96875 2.613281 3.96875 3.164062 L 3.96875 20.03125 C 3.96875 20.582031 4.410156 21.027344 4.960938 21.027344 L 18.355469 21.027344 C 18.90625 21.027344 19.347656 20.582031 19.347656 20.03125 L 19.347656 7.613281 Z M 13.90625 2.171875 "/>
<path style=" stroke:none;fill-rule:nonzero;fill:rgb(0%,0%,0%);fill-opacity:0.235294;" d="M 3.96875 19.648438 L 3.96875 20.03125 C 3.96875 20.582031 4.410156 21.027344 4.960938 21.027344 L 18.355469 21.027344 C 18.90625 21.027344 19.347656 20.582031 19.347656 20.03125 L 19.347656 19.648438 C 19.347656 20.199219 18.90625 20.640625 18.355469 20.640625 L 4.960938 20.640625 C 4.410156 20.640625 3.96875 20.199219 3.96875 19.648438 Z M 3.96875 19.648438 "/>
<path style=" stroke:none;fill-rule:nonzero;fill:url(#linear2);" d="M 13.890625 6.886719 L 18.605469 6.886719 L 19.347656 7.628906 L 19.347656 8.621094 L 13.890625 8.621094 Z M 13.890625 6.886719 "/>
<path style=" stroke:none;fill-rule:nonzero;fill:rgb(96.470588%,96.470588%,96.470588%);fill-opacity:0.588235;" d="M 4.960938 2.171875 C 4.410156 2.171875 3.96875 2.613281 3.96875 3.164062 L 3.96875 3.535156 C 3.96875 2.988281 4.410156 2.542969 4.960938 2.542969 L 13.90625 2.542969 L 19.347656 7.988281 L 19.347656 7.613281 L 13.90625 2.171875 Z M 4.960938 2.171875 "/>
<path style=" stroke:none;fill-rule:nonzero;fill:url(#linear3);" d="M 19.347656 7.613281 L 13.90625 2.171875 L 13.90625 6.621094 C 13.90625 7.171875 14.347656 7.613281 14.898438 7.613281 Z M 19.347656 7.613281 "/>
<path style=" stroke:none;fill-rule:nonzero;fill:rgb(0%,0%,0%);fill-opacity:0.235294;" d="M 13.90625 6.390625 L 13.90625 6.621094 C 13.90625 7.171875 14.347656 7.613281 14.898438 7.613281 L 19.347656 7.613281 L 19.117188 7.382812 L 14.898438 7.382812 C 14.347656 7.382812 13.90625 6.9375 13.90625 6.390625 Z M 13.90625 6.390625 "/>
<path style=" stroke:none;fill-rule:nonzero;fill:rgb(100%,100%,100%);fill-opacity:0.392157;" d="M 13.90625 2.171875 L 13.90625 2.542969 L 18.976562 7.613281 L 19.347656 7.613281 Z M 13.90625 2.171875 "/>
<path style=" stroke:none;fill-rule:nonzero;fill:rgb(12.941177%,12.941177%,12.941177%);fill-opacity:1;" d="M 13.90625 2.101562 C 13.867188 2.101562 13.835938 2.132812 13.835938 2.171875 L 13.835938 6.621094 C 13.835938 7.210938 14.3125 7.683594 14.898438 7.683594 L 19.347656 7.683594 C 19.378906 7.683594 19.402344 7.667969 19.414062 7.640625 C 19.425781 7.617188 19.417969 7.585938 19.398438 7.566406 L 13.957031 2.121094 C 13.941406 2.109375 13.925781 2.101562 13.90625 2.101562 Z M 13.976562 2.339844 L 19.179688 7.542969 L 14.898438 7.542969 C 14.386719 7.542969 13.976562 7.132812 13.976562 6.621094 Z M 13.976562 2.339844 "/>
<path style=" stroke:none;fill-rule:nonzero;fill:rgb(12.941177%,12.941177%,12.941177%);fill-opacity:1;" d="M 4.960938 2.101562 C 4.375 2.101562 3.898438 2.578125 3.898438 3.164062 L 3.898438 20.03125 C 3.898438 20.621094 4.375 21.097656 4.960938 21.097656 L 18.355469 21.097656 C 18.945312 21.097656 19.417969 20.621094 19.417969 20.03125 L 19.417969 7.613281 C 19.417969 7.597656 19.414062 7.578125 19.398438 7.566406 L 13.957031 2.121094 C 13.941406 2.109375 13.925781 2.101562 13.90625 2.101562 Z M 4.960938 2.242188 L 13.878906 2.242188 L 19.277344 7.644531 L 19.277344 20.03125 C 19.277344 20.546875 18.871094 20.957031 18.355469 20.957031 L 4.960938 20.957031 C 4.449219 20.957031 4.039062 20.546875 4.039062 20.03125 L 4.039062 3.164062 C 4.039062 2.652344 4.449219 2.242188 4.960938 2.242188 Z M 4.960938 2.242188 "/>
<path style="fill-rule:nonzero;fill:url(#linear4);stroke-width:11.338583;stroke-linecap:round;stroke-linejoin:round;stroke:rgb(12.941177%,12.941177%,12.941177%);stroke-opacity:1;stroke-miterlimit:4;" d="M 919.912201 695.051773 C 908.889631 695.051773 900.071575 704.184759 900.071575 715.207329 L 900.071575 763.391707 C 864.48442 778.823305 839.919836 814.095529 839.919836 855.036503 C 839.919836 870.468101 843.384072 885.269838 849.682684 898.181992 C 836.4556 914.558381 822.913585 934.084077 810.001431 956.444147 L 719.931288 1112.334781 C 681.194827 1179.414993 665.448299 1242.401107 684.659064 1253.423677 C 703.869829 1264.446247 750.479553 1219.411175 789.216014 1152.330963 L 792.995181 1145.717421 C 838.030252 1164.613256 887.789283 1175.005965 940.067758 1175.005965 C 992.031302 1175.005965 1041.790333 1164.613256 1087.140335 1145.717421 L 1090.604571 1152.330963 C 1129.341032 1219.411175 1176.265687 1264.446247 1195.476452 1253.423677 C 1214.687217 1242.401107 1198.625757 1179.414993 1159.889297 1112.334781 L 1157.054922 1107.295892 C 1206.184091 1073.28339 1246.810135 1027.933387 1275.153886 975.025051 C 1270.114997 945.106647 1202.404924 934.399007 1180.359784 975.025051 C 1162.408742 998.959775 1140.993463 1020.060123 1117.058739 1037.696235 L 1070.134084 956.444147 C 1057.221931 934.084077 1043.679916 914.558381 1030.137901 898.181992 C 1036.436513 885.269838 1039.900749 870.468101 1039.900749 855.036503 C 1039.900749 814.095529 1015.336164 778.823305 980.06394 763.391707 L 980.06394 715.207329 C 980.06394 704.184759 970.930954 695.051773 959.908384 695.051773 Z M 903.535811 948.255953 C 914.873312 952.664981 927.155604 955.184425 940.067758 955.184425 C 952.979911 955.184425 965.262204 952.664981 976.599704 948.255953 C 982.898316 963.687551 991.08651 979.74901 1000.849358 996.44033 L 1046.514291 1075.802834 C 1013.446581 1088.400057 977.544496 1095.013599 940.067758 1095.013599 C 902.276089 1095.013599 866.374004 1088.400057 833.306294 1075.802834 L 879.286157 996.44033 C 888.734074 979.74901 896.922269 963.687551 903.535811 948.255953 Z M 903.535811 948.255953 " transform="matrix(0.0124035,0,0,0.0124035,0,0)"/>
</g>
</svg>

<svg xmlns="http://www.w3.org/2000/svg" width="32" height="32" viewBox="0 0 24 24"><defs><linearGradient id="a" gradientUnits="userSpaceOnUse" x1="254" y1="233.5" x2="254" y2="254.667" gradientTransform="matrix(.04688 0 0 .04688 .496 10.08)"><stop offset="0" stop-opacity=".275"/><stop offset="1" stop-opacity="0"/></linearGradient><radialGradient id="b" gradientUnits="userSpaceOnUse" cx="450.909" cy="189.579" fx="450.909" fy="189.579" r="21.167" gradientTransform="matrix(0 -.0586 -.10548 0 37.113 47.696)"><stop offset="0" stop-opacity=".314"/><stop offset=".222" stop-opacity=".275"/><stop offset="1" stop-opacity="0"/></radialGradient><radialGradient id="c" gradientUnits="userSpaceOnUse" cx="450.909" cy="189.579" fx="450.909" fy="189.579" r="21.167" gradientTransform="matrix(0 .0586 .10548 0 -13.795 -5.646)"><stop offset="0" stop-opacity=".314"/><stop offset=".222" stop-opacity=".275"/><stop offset="1" stop-opacity="0"/></radialGradient><radialGradient id="d" gradientUnits="userSpaceOnUse" cx="450.909" cy="189.579" fx="450.909" fy="189.579" r="21.167" gradientTransform="matrix(0 -.0586 .10548 0 -13.795 47.696)"><stop offset="0" stop-opacity=".314"/><stop offset=".222" stop-opacity=".275"/><stop offset="1" stop-opacity="0"/></radialGradient><radialGradient id="e" gradientUnits="userSpaceOnUse" cx="450.909" cy="189.579" fx="450.909" fy="189.579" r="21.167" gradientTransform="matrix(0 .0586 -.10548 0 37.113 -5.646)"><stop offset="0" stop-opacity=".314"/><stop offset=".222" stop-opacity=".275"/><stop offset="1" stop-opacity="0"/></radialGradient><linearGradient id="f" gradientUnits="userSpaceOnUse" x1="940" y1="1695.118" x2="940" y2="175.118" gradientTransform="scale(.0124)"><stop offset="0" stop-color="#80deea"/><stop offset="1" stop-color="#b2ebf2"/></linearGradient><linearGradient id="g" gradientUnits="userSpaceOnUse" x1="249.189" y1="233.5" x2="249.189" y2="254.667" gradientTransform="matrix(.02242 0 0 .08204 11.282 -12.27)"><stop offset="0" stop-opacity=".275"/><stop offset="1" stop-opacity="0"/></linearGradient><linearGradient id="h" gradientUnits="userSpaceOnUse" x1="338.667" y1="233.5" x2="338.667" y2="-168.667" gradientTransform="matrix(.04688 0 0 .04688 0 10.08)"><stop offset="0" stop-color="#26c6da"/><stop offset="1" stop-color="#4dd0e1"/></linearGradient><linearGradient id="i" gradientUnits="userSpaceOnUse" x1="18401.781" y1="28098.309" x2="18401.781" y2="6385.369" gradientTransform="matrix(.07 0 0 .07 -328.205 -271.885)"><stop offset="0" stop-color="#26c6da"/><stop offset="1" stop-color="#4dd0e1"/></linearGradient></defs><path d="M5.953 21.027h11.41v.993H5.953zm0 0" fill="url(#a)"/><path d="M17.363 21.027h1.985v-.996h-1.985zm0 0" fill="url(#b)"/><path d="M5.953 21.027H3.97v.993h1.984zm0 0" fill="url(#c)"/><path d="M5.953 21.027H3.97v-.996h1.984zm0 0" fill="url(#d)"/><path d="M17.363 21.027h1.985v.993h-1.985zm0 0" fill="url(#e)"/><path d="M13.906 2.172H4.961a.989.989 0 0 0-.992.992v16.867c0 .551.441.996.992.996h13.394c.551 0 .993-.445.993-.996V7.613zm0 0" fill="url(#f)"/><path d="M3.969 19.648v.383c0 .551.441.996.992.996h13.394c.551 0 .993-.445.993-.996v-.383c0 .551-.442.993-.993.993H4.961a.989.989 0 0 1-.992-.993zm0 0" fill-opacity=".235"/><path d="M13.89 6.887h4.715l.743.742v.992H13.89zm0 0" fill="url(#g)"/><path d="M4.96 2.172a.989.989 0 0 0-.991.992v.371c0-.547.441-.992.992-.992h8.945l5.442 5.445v-.375l-5.442-5.441zm0 0" fill="#f6f6f6" fill-opacity=".588"/><path d="M19.348 7.613l-5.442-5.441v4.45c0 .55.442.991.992.991zm0 0" fill="url(#h)"/><path d="M13.906 6.39v.231c0 .55.442.992.992.992h4.45l-.23-.23h-4.22a.991.991 0 0 1-.992-.992zm0 0" fill-opacity=".235"/><path d="M13.906 2.172v.371l5.07 5.07h.372zm0 0" fill="#fff" fill-opacity=".392"/><path d="M13.906 2.102a.07.07 0 0 0-.07.07v4.45c0 .589.476 1.062 1.062 1.062h4.45a.068.068 0 0 0 .066-.043c.012-.024.004-.055-.016-.075l-5.441-5.445a.082.082 0 0 0-.05-.02zm.07.238l5.204 5.203h-4.282a.919.919 0 0 1-.921-.922zm0 0" fill="#212121"/><path d="M4.96 2.102c-.585 0-1.062.476-1.062 1.062v16.867c0 .59.477 1.067 1.063 1.067h13.394c.59 0 1.063-.477 1.063-1.067V7.613c0-.015-.004-.035-.02-.047l-5.441-5.445a.082.082 0 0 0-.05-.02zm0 .14h8.919l5.398 5.403V20.03a.917.917 0 0 1-.922.926H4.961a.92.92 0 0 1-.922-.926V3.164c0-.512.41-.922.922-.922zm0 0" fill="#212121"/><path d="M919.912 695.052c-11.022 0-19.84 9.133-19.84 20.155v48.185c-35.588 15.431-60.152 50.704-60.152 91.645 0 15.431 3.464 30.233 9.763 43.145-13.227 16.376-26.77 35.902-39.682 58.262l-90.07 155.89c-38.736 67.081-54.483 130.067-35.272 141.09 19.21 11.022 65.82-34.013 104.557-101.093l3.78-6.614c45.034 18.896 94.793 29.289 147.072 29.289 51.963 0 101.722-10.393 147.072-29.289l3.465 6.614c38.736 67.08 85.66 112.115 104.871 101.093 19.211-11.023 3.15-74.009-35.587-141.09l-2.834-5.038c49.13-34.013 89.755-79.363 118.099-132.27-5.039-29.92-72.75-40.627-94.794 0-17.951 23.934-39.367 45.034-63.301 62.67l-46.925-81.252c-12.912-22.36-26.454-41.886-39.996-58.262 6.299-12.912 9.763-27.714 9.763-43.145 0-40.941-24.565-76.214-59.837-91.645v-48.185c0-11.022-9.133-20.155-20.156-20.155zm-16.376 253.204c11.337 4.409 23.62 6.928 36.532 6.928 12.912 0 25.194-2.519 36.532-6.928 6.298 15.432 14.487 31.493 24.25 48.184l45.664 79.363c-33.067 12.597-68.97 19.21-106.446 19.21-37.792 0-73.694-6.613-106.762-19.21l45.98-79.363c9.448-16.691 17.636-32.752 24.25-48.184zm0 0" transform="scale(.0124)" fill="url(#i)" stroke-width="11.339" stroke-linecap="round" stroke-linejoin="round" stroke="#212121"/></svg>
